icons/milvus-light.svg

<svg width="256" height="256" viewBox="0 0 256 256" fill="none" xmlns="http://www.w3.org/2000/svg">
<rect width="256" height="256" rx="60" fill="#F4F2ED"/>
<path d="M122.343 61.0001C140.452 61.2874 156.307 67.2973 169.533 79.805C180.13 89.8259 186.662 102.089 189.261 116.437C189.976 120.341 190.301 124.306 190.229 128.275C189.907 144.408 184.596 158.685 173.993 170.886C163.715 182.711 150.811 190.218 135.429 193.044C114.683 196.855 95.8607 192.224 79.2006 179.176C75.7398 176.465 72.7369 173.254 69.6075 170.185C62.8704 163.578 56.1413 156.962 49.4202 150.338C43.3233 144.346 37.225 138.356 31.1254 132.368C28.2931 129.576 28.2911 125.703 31.1219 122.911C37.3863 116.734 43.6615 110.567 49.9475 104.412C55.8493 98.6179 61.7217 92.7931 67.6692 87.0461C71.6177 83.2307 75.3543 79.1884 79.6853 75.7759C88.1725 69.0422 98.1494 64.4397 108.781 62.3536C113.246 61.4536 117.789 61.0003 122.343 61.0001ZM174.687 127.691C174.641 124.822 174.359 121.962 173.843 119.14C171.203 105.301 163.932 94.4925 152.174 86.8475C140.833 79.4742 128.37 77.1827 115.077 79.6995C105.68 81.4278 97.0027 85.8921 90.1331 92.5326C85.4775 96.9793 80.914 101.523 76.3169 106.031C70.1542 112.074 63.9968 118.122 57.8447 124.176C55.7197 126.271 55.7288 129.009 57.8375 131.095C60.8564 134.081 63.8967 137.045 66.9247 140.022C74.3069 147.28 81.6891 154.538 89.0712 161.796C99.7752 172.28 112.616 177.18 127.593 176.495C135.421 176.2 143.051 173.954 149.791 169.963C165.792 160.435 173.965 146.232 174.687 127.691ZM207.687 127.648C207.724 120.385 206.947 113.14 205.369 106.05C205.32 105.834 205.282 105.615 205.255 105.395C205.2 105.093 205.241 104.781 205.37 104.503C205.499 104.224 205.711 103.992 205.977 103.838C206.238 103.649 206.553 103.548 206.875 103.551C207.197 103.553 207.51 103.658 207.769 103.85C208.011 104.035 208.236 104.241 208.442 104.466C214.545 110.566 220.647 116.667 226.748 122.77C229.755 125.778 229.75 129.607 226.736 132.621C220.654 138.703 214.572 144.786 208.489 150.868C208.332 151.025 208.179 151.186 208.016 151.336C207.769 151.606 207.433 151.779 207.07 151.825C206.707 151.87 206.339 151.786 206.032 151.586C205.72 151.425 205.474 151.161 205.334 150.84C205.195 150.518 205.171 150.158 205.266 149.82C205.908 146.87 206.458 143.904 206.852 140.909C207.335 137.366 207.613 133.799 207.685 130.224C207.698 129.366 207.687 128.507 207.687 127.648Z" fill="#33B5F1"/>
<path d="M125.732 167.9C136.326 167.9 146.485 163.692 153.976 156.201C161.467 148.71 165.675 138.551 165.675 127.957C165.675 117.363 161.467 107.203 153.976 99.7125C146.485 92.2216 136.325 88.0133 125.732 88.0133C115.138 88.0133 104.978 92.2216 97.4874 99.7125C89.9965 107.203 85.7882 117.363 85.7882 127.957C85.7882 138.551 89.9965 148.71 97.4874 156.201C104.978 163.692 115.138 167.9 125.732 167.9Z" fill="#33B5F1"/>
</svg>

<svg xmlns="http://www.w3.org/2000/svg" width="256" height="256" fill="none"><rect width="256" height="256" fill="#F4F2ED" rx="60"/><path fill="#33B5F1" d="M122.343 61c18.109.287 33.964 6.297 47.19 18.805 10.597 10.02 17.129 22.284 19.728 36.632a59.7 59.7 0 0 1 .968 11.838c-.322 16.133-5.633 30.41-16.236 42.611-10.278 11.825-23.182 19.332-38.564 22.158-20.746 3.811-39.568-.82-56.228-13.868-3.461-2.711-6.464-5.922-9.593-8.991a11446 11446 0 0 1-20.188-19.847 46191 46191 0 0 0-18.295-17.97c-2.832-2.792-2.834-6.665-.003-9.457a7532 7532 0 0 1 18.825-18.499c5.902-5.794 11.775-11.619 17.722-17.366 3.949-3.815 7.685-7.858 12.016-11.27a67.8 67.8 0 0 1 29.096-13.422A68.7 68.7 0 0 1 122.343 61m52.344 66.691a52 52 0 0 0-.844-8.551c-2.64-13.839-9.911-24.647-21.669-32.293-11.341-7.373-23.804-9.664-37.097-7.147a48.5 48.5 0 0 0-24.944 12.833c-4.655 4.446-9.219 8.99-13.816 13.498q-9.244 9.064-18.472 18.145c-2.125 2.095-2.116 4.833-.008 6.919 3.02 2.986 6.06 5.95 9.088 8.927l22.146 21.774q16.056 15.726 38.522 14.699a47.05 47.05 0 0 0 22.198-6.532c16.001-9.528 24.174-23.731 24.896-42.272m33-.043a97 97 0 0 0-2.318-21.598 7 7 0 0 1-.114-.655 1.49 1.49 0 0 1 .722-1.557 1.52 1.52 0 0 1 1.792.012q.364.278.673.616 9.154 9.15 18.306 18.304c3.007 3.008 3.002 6.837-.012 9.851l-18.247 18.247c-.157.157-.31.318-.473.468a1.546 1.546 0 0 1-1.984.25 1.525 1.525 0 0 1-.766-1.766c.642-2.95 1.192-5.916 1.586-8.911.483-3.543.761-7.11.833-10.685.013-.858.002-1.717.002-2.576"/><path fill="#33B5F1" d="M125.732 167.9a39.942 39.942 0 0 0 28.244-68.187 39.944 39.944 0 1 0-28.244 68.187"/></svg>
